icons/drop-off.svg

<svg width="24" height="24" viewBox="0 0 24 24" fill="none" xmlns="http://www.w3.org/2000/svg">
<g clip-path="url(#clip0)">
<path fill-rule="evenodd" clip-rule="evenodd" d="M0.292893 0.292893C0.683417 -0.0976311 1.31658 -0.0976311 1.70711 0.292893L23.7071 22.2929C24.0976 22.6834 24.0976 23.3166 23.7071 23.7071C23.3166 24.0976 22.6834 24.0976 22.2929 23.7071L17.8726 19.2868C17.451 19.7685 16.9749 20.2 16.4519 20.5702C15.1386 21.4997 13.5898 22 12 22C10.4102 22 8.86142 21.4997 7.54815 20.5702C6.23575 19.6413 5.21908 18.3271 4.61637 16.7993C4.0138 15.2719 3.84889 13.5923 4.13995 11.9689C4.42979 10.3522 5.16061 8.85435 6.24992 7.66413L0.292893 1.70711C-0.0976311 1.31658 -0.0976311 0.683417 0.292893 0.292893ZM7.66596 9.08017C6.87181 9.97289 6.32818 11.0968 6.10856 12.3218C5.88251 13.5826 6.01145 14.8857 6.47683 16.0654C6.94207 17.2447 7.71992 18.2415 8.70359 18.9377C9.68639 19.6334 10.833 20 12 20C13.167 20 14.3136 19.6334 15.2964 18.9377C15.7242 18.6349 16.1131 18.2754 16.4543 17.8685L7.66596 9.08017ZM12 2C12.2762 2 12.54 2.11421 12.7291 2.31554L17.736 7.64873C18.8331 8.84141 19.569 10.3453 19.8601 11.9689C19.9833 12.656 20.0247 13.3528 19.986 14.0435C19.9552 14.5949 19.4831 15.0169 18.9317 14.986C18.3803 14.9552 17.9583 14.4831 17.9892 13.9317C18.0192 13.3954 17.987 12.8546 17.8914 12.3218C17.6657 11.0628 17.0978 9.91059 16.2673 9.00639L12 4.46101L10.7922 5.74756C10.4141 6.1502 9.78129 6.17017 9.37864 5.79215C8.976 5.41413 8.95603 4.78128 9.33405 4.37864L11.2709 2.31554C11.46 2.11421 11.7238 2 12 2Z" fill="black"/>
</g>
<defs>
<clipPath id="clip0">
<rect width="24" height="24" fill="white"/>
</clipPath>
</defs>
</svg>

<svg
  width="24"
  height="24"
  viewBox="0 0 24 24"
  xmlns="http://www.w3.org/2000/svg"
>
  <g clip-path="url(#a)">
    <path
      fill-rule="evenodd"
      clip-rule="evenodd"
      d="M.293.293a1 1 0 0 1 1.414 0l22 22a1 1 0 0 1-1.414 1.414l-4.42-4.42a8.135 8.135 0 0 1-1.421 1.283A7.699 7.699 0 0 1 12 22c-1.59 0-3.139-.5-4.452-1.43a8.37 8.37 0 0 1-2.932-3.77 8.907 8.907 0 0 1-.476-4.831 8.63 8.63 0 0 1 2.11-4.305L.293 1.707a1 1 0 0 1 0-1.414zM7.666 9.08a6.638 6.638 0 0 0-1.557 3.242 6.907 6.907 0 0 0 .368 3.743 6.37 6.37 0 0 0 2.227 2.873A5.698 5.698 0 0 0 12 20a5.698 5.698 0 0 0 3.296-1.062 6.148 6.148 0 0 0 1.158-1.07L7.666 9.08zM12 2a1 1 0 0 1 .73.316l5.006 5.333a8.628 8.628 0 0 1 2.124 4.32c.123.687.165 1.384.126 2.075a1 1 0 1 1-1.997-.112 6.928 6.928 0 0 0-.098-1.61 6.628 6.628 0 0 0-1.624-3.316L12 4.461l-1.208 1.287a1 1 0 0 1-1.458-1.37l1.937-2.062A1 1 0 0 1 12 2z"
    />
  </g>
  <defs>
    <clipPath id="a">
      <rect width="24" height="24" />
    </clipPath>
  </defs>
</svg>
